X:1
T:Title
%%score [ ( 1 2 ) ( 3 4 ) ]
L:1/8
Q:1/4=96
M:4/4
K:F
V:1 treble nm="Soprano Alto"
V:2 treble 
V:3 bass nm="Tenor Bass"
V:4 bass 
V:1
!mp! cAB=B c!<(!FGD!<)! | F4!>(! E4!>)! | cB^FG cB=DB | A4- A3 z | FFEF G!<(!FG^G!<)! | %5
w: "M" is for the mil- lion things she|gave me,|"O" means on- ly that she's grow- ing|old, _|"T" is for the tears were shed to|
w: |||||
 A4!>(! c4!>)! |!<(! GA=Bc!<)! dBA_A |!>(! G4- G3!>)! z | cAB=B c!<(!FGD!<)! | F4!>(! E4!>)! | %10
w: save me,|"H" is for her heart of pur- est|gold, *|||
w: ||gold, _|_ _ _ _ _ _ _ _||
 GG^FG cGAB | A4- A3 z |!<(! _AAGF AAG!<)!F | c4!>(! =A3 A!>)! |!<(! GABc d2 c2!<)! | f8- | %16
w: ||||||
w: |be, _|_ _ _ _ _ _ _ _|||me.|
 f6 z2 |] %17
w: |
w: _|
V:2
 FFEF FDDD | D2 _D2 (C>=D C2) | EE^DE EE=DG | F4- F3 z | CCE_E DDFF | (F2 G2) ^F4 | FFFA GFFF | %7
w: |||||||
 E2 F>F E3 z | FFEF FDDD | (D2 _D2) (C>=D C2) | EE^DE EEEE | E2 _E2 D3 z | DDDD _DDDD | %13
w: * pur- est gold,|"E" is for her eyes with love- light|shin- * ing, _ _|"R" means right, and right she'll al- ways|be, she'll be,|Put them all to- geth- er, they spell|
 (F2 G2) ^F3 D | DDG^F (AG) _B2 | A2 c2 B2 (G_A) | =A6 z2 |] %17
w: "MOTH- * ER," A|word that means the world _ to|me, the world to _|me.|
V:3
 A,CCD CC=B,B, | _B,4 B,4 | B,DCC B,DB,C | C2 C>D C3 z | A,A,CC B,B,B,=B, | (C2 _E2) (D>E D2) | %6
w: |||* grow- ing old,|||
w: ||||||
 DCDD =B,DCD | C2 _D>D C3 z | A,CC=D CC=B,B, | _B,4 B,4 | B,B,CC B,CCD | ^C2 =C2 C3 z | %12
w: ||||||
w: ||||||
 =B,B,B,B, B,B,B,B, | (C2 _E2) D3 C | B,CDD =F2 =E2 | C2 _E2 D2 _D2 | C6 z2 |] %17
w: |||||
w: |||me. _ _ _|_|
V:4
 F,F,G,^G, A,A,_A,A, | =G,4 G,4 | G,G,A,B, G,G,F,E, | F,4- F,3 z | F,F,A,A, F,G,D,_D, | %5
w: |||||
w: |||||
 (C,2 C2) A,4 | =B,A,G,^F, =F,G,A,B, | _B,4- B,3 z | F,F,G,^G, A,A,_A,A, | =G,4 G,4 | %10
w: |||||
w: ||gold, _|_ _ _ _ _ _ _ _||
 G,G,A,B, G,B,A,G, | A,2 G,2 ^F,3 z | =F,F,G,_A, F,F,G,A, | =A,4 C3 ^F, | G,^F,G,A, =B,2 C2 | %15
w: |||||
w: |||||
 =F,8- | F,6 z2 |] %17
w: ||
w: ||

